X:1
T:Finale
T:for organ
T:Erkki Ensiö
T:Toccata brevis
C:Erkki Ensiö
%%score [ ( 1 2 3 ) ( 4 5 6 ) 7 ]
L:1/8
Q:1/4=120
M:4/4
K:C
V:1 treble nm="Flute"
V:2 treble 
V:3 treble 
V:4 treble nm="Oboe"
V:5 treble 
V:6 treble 
V:7 bass nm="Bassoon"
V:1
 efbf e_B z2 | efc'g ^g^c' z f/=g/ | d'/^g/f/_B/ =Bb c'/=g/_e/_A/ cd | %3
 b/^f/_e/_A/ ca _b/=f/_d/_G/ B_a | d/_a/f/_B/ =Bg _e/g/c/_A/ Gd | c/_g/_e/_A/ c=A _B/f/_d/_A/ ^fc | %6
 d/a/f/c/ ^ae f/c'/_a/_e/ _d'g- | g^gd'g =g^c z d/e/ | a/e/ z g/d/ z f/c/ z g/^c/ z | %9
 _e/_B/ z _d/_A/ z g/=d/ z ^g/^d/ z | a/e/ z g/d/ z f/c/ z _g/_d/ z | %11
 b/^f/ z a/e/ z g/d/ z ^g/^d/ z | efbf e_B z2 | efc'g ^g^c' z f/g/ | %14
 d'/^g/f/_B/ =B2 c'/=g/_e/_A/ d2 | c'/^f/_e/_A/ =A2 _b/=f/_d/_G/ c2 | z3 [_B_eg] a4- | a8 :| %18
V:2
 x8 | x8 | x8 | x8 | x8 | x8 | x8 | x8 | x8 | x8 | x8 | x8 | x8 | x8 | x8 | x8 | x4 c4- | c8 :| %18
V:3
 x8 | x8 | x8 | x8 | x8 | x8 | x8 | x8 | x8 | x8 | x8 | x8 | x8 | x8 | x8 | x8 | x4 f4- | f8 :| %18
V:4
 z4 z .[B,^D^G].[B,E=G] z | z4 z .[_B,_D_G].[B,=DF] z | z2 B,/E/G/d/ c2 D/_A/F/_B/ | %3
 _e2 A/D/F/c/ _B2 _G/A/_E/_A/ | F2 D/E/G/d/ c2 _B/_A/F/B/ | _E2 F/D/F/c/ _B2 A/^F/E/=F/ | %6
 d2 ^c/^A/G/=A/ f2 e/_d/_B/=c/ | BE z2 z .[D^FB].[DG_B] z | z B/^F/ z c/G/ z A/E/ z B/G/ | %9
 z F/C/ z _G/_D/ z B/^F/ z ^c/A/ | z B/^F/ z c/G/ z A/E/ z B/G/ | z ^c/^G/ z d/A/ z B/^F/ z c/A/ | %12
 z4 z .[B,_E_A].[B,=EG] z | z4 z .[_B,_D_G].[B,=DF] z | z2 B,/E/G/d/ c2 D/_A/F/_B/ | %15
 _e2 A/D/F/c/ _B2 C/_G/_E/_A/ | z3 [F_A_d] ((c4 | c8)) :| %18
V:5
 x8 | x8 | x8 | x8 | x8 | x8 | x8 | x8 | x8 | x8 | x8 | x8 | x8 | x8 | x8 | x8 | x4 F4- | F8 :| %18
V:6
 x8 | x8 | x8 | x8 | x8 | x8 | x8 | x8 | x8 | x8 | x8 | x8 | x8 | x8 | x8 | x8 | x4 =A4- | A8 :| %18
V:7
 _A,2 _D,2 _E,2 A,,2 | _B,2 _E,2 F,2 z2 | D,,2 E,2 _E,,2 F,2 | ^F,,2 C,2 _D,,2 _E,2 | %4
 D,,2 E,2 _E,,2 F,2 | _G,,2 C,2 _D,,2 _E,2 | F,,2 G,2 _A,,2 _B,2 | z2 E,2 ^F,2 C,2 | z8 | %9
 z4 C,2 _B,,2 | C,6 A,2 | D,6 F,2 | ^G,,2 A,,2 D,2 A,,2 | _B,,2 _E,2 z4 | D,,2 E,2 _E,,2 F,2 | %15
 ^F,,2 C,A,, _B,,4 | F,,8- | F,,8 :| %18

